packages/icons/svg/32/LikeOff.svg

<svg width="32" height="32" viewBox="0 0 32 32" fill="none" xmlns="http://www.w3.org/2000/svg">
<path d="M11 7.5C8.23858 7.5 6 9.73858 6 12.5C6 17.3342 9.11435 21.6498 15.7559 25.3646C15.9076 25.4495 16.0924 25.4495 16.2441 25.3646C22.8857 21.6498 26 17.3342 26 12.5C26 9.73858 23.7614 7.5 21 7.5C19.5454 7.5 17.9403 8.43481 16.8024 9.96456L16 11.0432L15.1976 9.96456C14.0597 8.43481 12.4546 7.5 11 7.5Z" fill="white"/>
<path fill-rule="evenodd" clip-rule="evenodd" d="M11 7.5C8.23858 7.5 6 9.73858 6 12.5C6 17.3342 9.11435 21.6498 15.7559 25.3646C15.9076 25.4495 16.0924 25.4495 16.2441 25.3646C22.8857 21.6498 26 17.3342 26 12.5C26 9.73858 23.7614 7.5 21 7.5C19.5454 7.5 17.9403 8.43481 16.8024 9.96456L16 11.0432L15.1976 9.96456C14.0597 8.43481 12.4546 7.5 11 7.5ZM4 12.5C4 8.63401 7.13401 5.5 11 5.5C12.8689 5.5 14.6517 6.45001 16 7.83061C17.3483 6.45001 19.1311 5.5 21 5.5C24.866 5.5 28 8.63401 28 12.5C28 18.3739 24.1599 23.2287 17.2204 27.1101C16.4621 27.5343 15.5379 27.5343 14.7796 27.1101C7.84012 23.2287 4 18.3739 4 12.5Z" fill="#858585"/>
</svg>

<svg width="32" height="32" fill="none" xmlns="http://www.w3.org/2000/svg" viewBox="0 0 32 32"><path d="M11 7.5a5 5 0 00-5 5c0 4.834 3.114 9.15 9.756 12.865a.5.5 0 00.488 0C22.886 21.65 26 17.335 26 12.5a5 5 0 00-5-5c-1.455 0-3.06.935-4.198 2.465L16 11.043l-.802-1.078C14.06 8.435 12.455 7.5 11 7.5z" fill="#fff"></path><path fill-rule="evenodd" clip-rule="evenodd" d="M11 7.5a5 5 0 00-5 5c0 4.834 3.114 9.15 9.756 12.865a.5.5 0 00.488 0C22.886 21.65 26 17.335 26 12.5a5 5 0 00-5-5c-1.455 0-3.06.935-4.198 2.465L16 11.043l-.802-1.078C14.06 8.435 12.455 7.5 11 7.5zm-7 5a7 7 0 017-7c1.869 0 3.652.95 5 2.33 1.348-1.38 3.131-2.33 5-2.33a7 7 0 017 7c0 5.874-3.84 10.729-10.78 14.61a2.5 2.5 0 01-2.44 0C7.84 23.23 4 18.374 4 12.5z" fill="currentColor"></path></svg>
